X: 684
P: Longways for as many as will
M: 3/4
L: 1/8
K: G
z4 G2 |\
(Bc d2 e/)(f/g) | (g d3) B2 | c3 e d2 | B2 G4 |\
z4 A2 | B2 c2 d2 | d2 c2 B2 | c2 d2 e2 |\
e2 f2 g2 | (fg) a2 (ad) |
(d2 e2 f2) | e3 f g2 | f2 d4 | z4 d2 |\
e2 f2 g2 | d2 c2 B2 | c2 d2 e2 | e2 d2 c2 |\
(g d3) (dB) |
(B G3) D2 | GA B2 c2 | d4 (e/f/g) | (g d3) B2 |\
(Bc d2) G2 | Bc d2 g2 | f4 A2 | G2 B2 d2 |\
d3 c B2 | A2 G4 |]

